!!!SOCIAL_FUNCTION:	songs used in the treatment of the sick
!!!PDT:	1929
!!!OTL: No_82_My_Feathers.krn
!!!REG: Southwest
!!!LANG: Non-Tone
!!!LING_GROUP: Uto-Aztecan
**kern
*staff1
*clefF4
*k[b-e-]
*M3/4
16F\LL
16F\JJ
=1
16d\LL
16d\
16.d\
32B-\JJk
8.B-\L
16F\Jk
32B-\LLK
16.B-\
16G\
16F\JJ
=2
8.F\L
16F\Jk
4F\
8.B-\L
16F\Jk
=3||
*M2/4
8.F\L
16G\Jk
8.F\L
16D\Jk
=4
12G\L
12F\
12G\J
8F\L
16F\L
16F\JJ
=5||
*M3/4
4.F\
8D\
8G;\L
8F\J
=6||
*M2/4
8.F\L
16F\Jk
8.F\L
16D\Jk
=7
4F\
8.F\L
16D\Jk
=8||
*M3/4
8F\L
16F\L
16F\JJ
[4F\
4F\]
==:|!
*-
